X: 297
T: 298. Weg, mein Herz, mit den Gedanken
N: Derived from chor298.krn
C: Johann Sebastian Bach
%%abc-version 2.0
%%abcx-abcm2ps-target-version 5.9.1 (29 Sep 2008)
%%abc-creator hum2abc beta
%%abcx-conversion-date 2019/03/11 17:28:19
%%abc-edited-by Craig Stuart Sapp
%%humdrum-veritas 3430931635
%%humdrum-veritas-data 4180405141
%%
%%barnumbers 0
L: 1/4
M: 3/4
%%staves [1 2 3 4]
V: 1 clef=treble
V: 2 clef=treble
V: 3 clef=treble-8
V: 4 clef=bass
K: C
[V:1] c2d | 
[V:2] G2G | 
[V:3] e2B | 
[V:4] C2G, | 
[V:1] e2d | 
[V:2] G2^F | 
[V:3] cBA | 
[V:4] C,2D, | 
[V:1] c2B | 
[V:2] GAG | 
[V:3] edd | 
[V:4] E,^F,G, | 
[V:1] A3 | 
[V:2] E^F2 | 
[V:3] cA2 | 
[V:4] C,D,2 | 
[V:1] !fermata!G3 | 
[V:2] !fermata!D3 | 
[V:3] !fermata!B3 | 
[V:4] !fermata!G,,3 | 
[V:1] c2d | 
[V:2] C2G | 
[V:3] G2B | 
[V:4] E,2G, | 
[V:1] e2f | 
[V:2] G2A | 
[V:3] c2c | 
[V:4] CB,A, | 
[V:1] ed2 | 
[V:2] EAG | 
[V:3] c2B | 
[V:4] G,F,G, | 
[V:1] !fermata!c3 :|]  
[V:2] !fermata!E3 :|]  
[V:3] !fermata!G3 :|]  
[V:4] !fermata!C,3 :|]  
[V:1] e2f | 
[V:2] G2A | 
[V:3] c2c | 
[V:4] C2A, | 
[V:1] g2f | 
[V:2] _B2A | 
[V:3] c2c | 
[V:4] E,2F, | 
[V:1] ed2 | 
[V:2] EAG | 
[V:3] c2B | 
[V:4] G,F,G, | 
[V:1] !fermata!e3 | 
[V:2] !fermata!G3 | 
[V:3] !fermata!c3 | 
[V:4] !fermata!C,3 | 
[V:1] gg2 | 
[V:2] c_B2 | 
[V:3] ee2 | 
[V:4] C,C/_B,/A,/G,/ | 
[V:1] a2g | 
[V:2] A=Bc | 
[V:3] cde | 
[V:4] F,2E, | 
[V:1] fe2 | 
[V:2] cG2 | 
[V:3] c2c | 
[V:4] A,/B,/CC, | 
[V:1] !fermata!d3 | 
[V:2] !fermata!G3 | 
[V:3] !fermata!B3 | 
[V:4] !fermata!G,3 | 
[V:1] e2g | 
[V:2] G2G | 
[V:3] c2c | 
[V:4] C2E, | 
[V:1] f2e | 
[V:2] A2G | 
[V:3] c2B | 
[V:4] F,2G, | 
[V:1] cd2 | 
[V:2] FDG | 
[V:3] cB2 | 
[V:4] A,B,G, | 
[V:1] e3 | 
[V:2] G3 | 
[V:3] c2_B | 
[V:4] C2C, | 
[V:1] !fermata!c3 | 
[V:2] !fermata!F3 | 
[V:3] !fermata!A3 | 
[V:4] !fermata!F,3 | 
[V:1] e2g | 
[V:2] G2G | 
[V:3] c2e | 
[V:4] C,2C | 
[V:1] f2e | 
[V:2] G2G | 
[V:3] d2c | 
[V:4] CB,C | 
[V:1] d2e | 
[V:2] FDG | 
[V:3] ABc- | 
[V:4] F,G,C, | 
[V:1] d3 | 
[V:2] G3 | 
[V:3] cB/d/f | 
[V:4] G,,3 | 
[V:1] !fermata!c3 |]  
[V:2] !fermata!G3 |]  
[V:3] !fermata!e3 |]  
[V:4] !fermata!C,3 |]  



